X:611
T:MacNamara's Band
C:Shamus O'Connor, 1889
S:Colin Hume's website,  colinhume.com  - chords can also be printed below the stave.
Q:3/8=120
M:6/8
R:Jig
L:1/8
K:G
P:A
"D7"A | "G"B2B B2B | B2B B2B | B2B A2G | D3-D2B |\
"C"c2c c2c | "G"B2B B2B | "A7"A2G F2G | "D7"A3 d3 |
"G"B2B B2B | B2B B2B | B2B A2G | D3-D2B |\
"Am"c2c B2A | "G"d2B G2D | "C"E2c "D7"B2A | "G"G3 "D7"DEF |
P:B
"G"G6- | G2e d2B | "A7"A6 | E3 A2G |\
"D"F2d ^c2d | "D7"e2d c2A | "G"B6- | "G"B3 "D7"DEF |
"G"G6- | G2e d2B | "A7"A6 | E3 A2G |\
"D"F2d ^c2d | "D7"e2d c2A | "G"G6- | G3 z2 |]

